X:1
P: The Brig o' Dee
C: Athole Collection
C: arr. T. Traub 2-15-2000
K: D
M: 4/4
L: 1/8
A|: "D"F<AA>F G>FE>D|"G"GG "D"F>A d2|"D"F<AA>F "Bm"G>FE>D|"Em"G<A,F<A, "A"E/E/E B2 :|
"D"A<d de/f/ "G"g>A"D"f>A|"G"g>A"D"f>A "Em"(3efd "A"(3cBA|"D"A>d de/f/ "G"g>fg>b|"D"(3agf "A"(3gfe "D"d2 "G"dc/B/|
"D"A<d de/f/ "G"g>A"D"f>A|"G"g>A"D"f>A "A"e>fg>b|"D"(3aga "Bm"(3def "Em"(3gfg "G"(3Bcd| [1 "Em"(3efd (3cdB "A"(3ABG (3FGE :| [2 "Em"(3efd "A"(3cde "D"f<d d |]
